!!!OTL: J&auml;ger und Graserin (220), S. 475
!!!id: T0402
**kern
*clefG2
*k[f#]
*G:
{16g
16g
=1
4g
8g
4g
8g
=2
8g
8f#
8e
4d
8b
=3
4g}
4.r
=4
{16b
16b
=5
4b
8b
4b
8b
=6
4a
8dd
4cc}
=7
{8b
=8
8a
8a
8a
4a
8d
=9
4d
8dd
4dd}
8r
=10
{8.g
16f#
8e
8.a
8g
16f#
=11
4g}
4.r
==
*-
!!!minrhy: 16
!!!meters: 6/8 ]  ZZ[4
!!!cut: J&auml;ger und Graserin (220), S. 475
!!!reg: Luxemburg
!!!trd: Singendes Volk, Esch-Alzette, 1937 posth.
!!!rhy1: XX  X__X_X__X_  X_X_X_X__X_  X__0__.
!!!rhy2: XX  X__X_X__X_  X__X_X__
!!!key: T0402  16  G 6/8 ]  ZZ[4
!!!mod: HEPTATONIK IONISCH]  AMBITUS[8
!!!kad: 1451
!!!akz: 111-51_3324_22-55_121_
!!!fot: 'a__b__c__d__
!!!for: 'a__b__c__d__
!!!fok: 'S__/__Va_V__
!! PHRAS[VORWIEGEND AUFTAKTIG]
!!!fkt: J&auml;gerlied, Berufslied, Liebeslied
!!!bem: Reuland, fff Katharina Prim, 1911
!! THILL; Mathias
!! PR[48] 2K[0] 2G[6] 3K[8] 3G[8] 4A[2] 4Ü[0] 5A[0] 6K[0] 6G[0]
!! 7K[0] 7G[0] 8A[0] MEHR[0] SI[25] ABS[48] SR[6] SP[19]
!! ST[12] 2k[2] 2g[15] 3k[4] 3g[2] 4d[0] 4ü[0] 5d[4] 6k[0] 6g[0]
!! 7k[0] 7g[0] 8d[0] mehr[0] si[27] dm[-2] sr[17] sp[10]
!! 1F[76] 2F[18] 3F[2] 4F[0] LF[0] 2P[4] 3P[0] 4P[0] TRI[0] DF[4] AB[55]
!! TF[0] U3K[0] U3[0] U4[0] U4Ü[0] U5[0] U6K[0] U6[0] U7K[0] U7[0]
!! N1[20] N2K[0] N2[4] N3K[0] N3[24] N4[8] N4Ü[0] N5[31] N6K[0] N6[12]
!!!n7k: 0] N7[0] O1[0] O2K[0] O2[0] O3K[0] O3[0] HÖ[0
!!!RNB: symbol: &auml;      = a umlaut  (UTF-8: Å„)
